COLOR/mimes 16/16/application-xmind.svg

<svg height="16" viewBox="0 0 4.233125 4.233125" width="16" xmlns="http://www.w3.org/2000/svg" xmlns:xlink="http://www.w3.org/1999/xlink"><linearGradient id="a" gradientUnits="userSpaceOnUse" x1="328" x2="328" y1="237" y2="251"><stop offset="0" stop-color="#fff"/><stop offset=".125" stop-color="#fff" stop-opacity=".098039"/><stop offset=".92500001" stop-color="#fff" stop-opacity=".098039"/><stop offset="1" stop-color="#fff" stop-opacity=".498039"/></linearGradient><clipPath id="b"><path d="m325.09646 237c-2.80769 0-3.10979.28839-3.09603 3.10176v3.89824 3.89824c-.0138 2.81337.28834 3.10176 3.09603 3.10176h5.8075c2.8077 0 3.09604-.28835 3.09604-3.10176v-3.89824-3.89824c0-2.8134-.28835-3.10176-3.09604-3.10176z"/></clipPath><linearGradient id="c" gradientTransform="matrix(0 -.00953618 -.00953591 0 5.176271 4.473644)" gradientUnits="userSpaceOnUse" x1="459.03448" x2="35.310345" y1="419.23337" y2="207.36522"><stop offset="0" stop-color="#da1636"/><stop offset="1" stop-color="#f22c42"/></linearGradient><path d="m2.8849672.13228553c.187972 0 .3369145.004074.463514.0253194.1265996.021245.2372429.0627772.3193443.14468821.082102.0819083.1236232.1921045.1446883.31882839.02106.12672124.024684.27608441.023758.46454847v1.0308928 1.0314115c.0007937.188165-.00273.3374488-.023758.4640299-.02106.1267238-.062584.23692-.1446883.3188284-.082104.081911-.1927421.1234352-.3193443.1446882-.1266022.021245-.275542.025319-.463514.025319h-1.5367831c-.1879719 0-.3366287-.00405-.46299804-.025319-.12636672-.0212715-.23701267-.0627376-.31882839-.1446882-.08180779-.0819507-.12294318-.1922924-.14416966-.3188284-.02121854-.1265334-.02531938-.275685-.02531938-.4640299v-1.0314115-1.0314114c0-.18834498.004101-.33749649.0253194-.46402989.02121852-.12653604.06235921-.23687774.14416964-.31882839.08181572-.08195066.19246167-.12342205.31882839-.14468821.12636934-.02127146.27502614-.02531938.46299804-.02531938z" fill="url(#c)"/><g fill="#fff"><path d="m3.0296952 1.3266643-.6372124.110384c.0091806.4169417-.4132879.7067123-.8096936-.078789l-.74966529.1104766c.11670197.4247465.53561469.4770706.81502739.7005028-.139709.2095053-.7743497.0833265-.75736693.7372226l.63720963-.1104819c-.00918-.416939.7261662-.768127 1.122474.017488l.7496653-.1104739c-.1168951-.4258259-.5620823-.4663052-.8414845-.6911185.1384153-.3043855.5963336-.0306002.4709432-.6851922" stroke-width=".098731"/><path d="m2.1166947.26457068v3.70398432h.7683916c.7428341 0 .8190303-.076236.8190303-.8205807v-1.0314115-1.0314114c0-.74434214-.076199-.82058072-.8190303-.82058072z" opacity=".08"/><path d="m.52927284 2.1165628v1.0314115c-.003651.7443342.0761989.8205807.81903036.8205807h1.5367831c.7428341 0 .8190303-.076236.8190303-.8205807v-1.0314115z" opacity=".08"/></g><path d="m1.3483032.13228553c-.1879719 0-.3369145.004074-.463514.0253194-.12659954.021245-.23724284.0627772-.3193443.14468821-.0821015.0819083-.12362312.1921045-.14468821.31882839-.0210598.12672124-.0246844.27608441-.0237584.46454847v1.0308928 1.0314115c-.00079371.188165.002725.3374488.0237584.4640299.0210598.1267238.0625841.23692.14468821.3188284.0821041.081911.19274212.1234352.3193443.1446882.1266022.021245.2755421.025319.463514.025319h1.5367831c.1879719 0 .3366287-.00405.4629981-.025319.1263667-.0212715.2370126-.0627376.3188284-.1446882.0818078-.0819507.1229431-.1922924.1441696-.3188284.0212186-.1265334.0253194-.275685.0253194-.4640299v-1.0314115-1.0314114c0-.18834498-.0041-.33749649-.025319-.46402989-.0212189-.12653604-.0623596-.23687774-.14417-.31882839-.0818158-.08195066-.1924617-.12342205-.3188284-.14468821-.1263694-.02127146-.2750262-.02531938-.4629981-.02531938z" fill="none" opacity=".4" stroke="#000" stroke-width=".26457"/><path clip-path="url(#b)" d="m325.09646 237c-2.80769 0-3.10979.28839-3.09603 3.10176v3.89824 3.89824c-.0138 2.81337.28834 3.10176 3.09603 3.10176h5.8075c2.8077 0 3.09604-.28835 3.09604-3.10176v-3.89824-3.89824c0-2.8134-.28835-3.10176-3.09604-3.10176z" fill="none" opacity=".4" stroke="url(#a)" stroke-width="2" transform="matrix(.26457031 0 0 .26457031 -84.662368 -62.438593)"/></svg>

<?xml version="1.0" encoding="UTF-8" standalone="no"?>
<svg
   xmlns:dc="http://purl.org/dc/elements/1.1/"
   xmlns:cc="http://creativecommons.org/ns#"
   xmlns:rdf="http://www.w3.org/1999/02/22-rdf-syntax-ns#"
   xmlns:svg="http://www.w3.org/2000/svg"
   xmlns="http://www.w3.org/2000/svg"
   xmlns:xlink="http://www.w3.org/1999/xlink"
   xmlns:sodipodi="http://sodipodi.sourceforge.net/DTD/sodipodi-0.dtd"
   xmlns:inkscape="http://www.inkscape.org/namespaces/inkscape"
   width="16"
   height="16"
   version="1.1"
   viewBox="0 0 4.233125 4.233125"
   id="svg81"
   sodipodi:docname="application-xmind.svg"
   inkscape:version="0.92.4 (5da689c313, 2019-01-14)">
  <metadata
     id="metadata85">
    <rdf:RDF>
      <cc:Work
         rdf:about="">
        <dc:format>image/svg+xml</dc:format>
        <dc:type
           rdf:resource="http://purl.org/dc/dcmitype/StillImage" />
        <dc:title />
      </cc:Work>
    </rdf:RDF>
  </metadata>
  <sodipodi:namedview
     pagecolor="#ffffff"
     bordercolor="#666666"
     borderopacity="1"
     objecttolerance="10"
     gridtolerance="10"
     guidetolerance="10"
     inkscape:pageopacity="0"
     inkscape:pageshadow="2"
     inkscape:window-width="1225"
     inkscape:window-height="854"
     id="namedview83"
     showgrid="false"
     inkscape:zoom="41.75"
     inkscape:cx="2.3010697"
     inkscape:cy="7.0419162"
     inkscape:window-x="0"
     inkscape:window-y="27"
     inkscape:window-maximized="0"
     inkscape:current-layer="svg81" />
  <defs
     id="defs17">
    <linearGradient
       id="linearGradient4226"
       x1="529.65503"
       x2="-35.310001"
       y1="401.58401"
       y2="119.093"
       gradientTransform="matrix(0,-0.11988932,0.11988589,0,0.36277965,292.5483)"
       gradientUnits="userSpaceOnUse">
      <stop
         style="stop-color:#f2f2f2"
         offset="0"
         id="stop2" />
      <stop
         style="stop-color:#f9f9f9"
         offset="1"
         id="stop4" />
    </linearGradient>
    <linearGradient
       id="linearGradient4358"
       x1="88"
       x2="488"
       y1="88"
       y2="488"
       gradientUnits="userSpaceOnUse">
      <stop
         style="stop-color:#000000;stop-opacity:.58823532"
         offset="0"
         id="stop7" />
      <stop
         style="stop-color:#000000;stop-opacity:0"
         offset=".88"
         id="stop9" />
      <stop
         style="stop-color:#000000"
         offset="1"
         id="stop11" />
    </linearGradient>
    <filter
       id="filter4346"
       width="1.026"
       height="1.022"
       x="-0.0099999998"
       y="-0.0099999998"
       style="color-interpolation-filters:sRGB">
      <feGaussianBlur
         stdDeviation="2.12"
         id="feGaussianBlur14" />
    </filter>
    <clipPath
       clipPathUnits="userSpaceOnUse"
       id="clipPath983">
      <path
         sodipodi:nodetypes="scccssscsss"
         inkscape:connector-curvature="0"
         id="path985"
         d="m 325.09646,237 c -2.80769,0 -3.10979,0.28839 -3.09603,3.10176 V 244 v 3.89824 c -0.0138,2.81337 0.28834,3.10176 3.09603,3.10176 h 5.8075 C 333.71166,251 334,250.71165 334,247.89824 V 244 240.10176 C 334,237.28836 333.71165,237 330.90396,237 Z"
         style="color:#000000;display:inline;overflow:visible;visibility:visible;opacity:1;fill:#46a926;fill-opacity:1;fill-rule:nonzero;stroke:none;stroke-width:2;stroke-miterlimit:4;stroke-dasharray:none;stroke-opacity:1;marker:none;enable-background:accumulate" />
    </clipPath>
    <linearGradient
       inkscape:collect="always"
       xlink:href="#linearGradient927"
       id="linearGradient993"
       x1="328"
       y1="237"
       x2="328"
       y2="251"
       gradientUnits="userSpaceOnUse" />
    <linearGradient
       inkscape:collect="always"
       id="linearGradient927">
      <stop
         style="stop-color:#ffffff;stop-opacity:1;"
         offset="0"
         id="stop923" />
      <stop
         id="stop933"
         offset="0.125"
         style="stop-color:#ffffff;stop-opacity:0.09803922" />
      <stop
         id="stop931"
         offset="0.92500001"
         style="stop-color:#ffffff;stop-opacity:0.09803922" />
      <stop
         style="stop-color:#ffffff;stop-opacity:0.49803922"
         offset="1"
         id="stop925" />
    </linearGradient>
    <clipPath
       clipPathUnits="userSpaceOnUse"
       id="clipPath983-3">
      <path
         sodipodi:nodetypes="scccssscsss"
         inkscape:connector-curvature="0"
         id="path985-6"
         d="m 325.09646,237 c -2.80769,0 -3.10979,0.28839 -3.09603,3.10176 V 244 v 3.89824 c -0.0138,2.81337 0.28834,3.10176 3.09603,3.10176 h 5.8075 C 333.71166,251 334,250.71165 334,247.89824 V 244 240.10176 C 334,237.28836 333.71165,237 330.90396,237 Z"
         style="color:#000000;display:inline;overflow:visible;visibility:visible;opacity:1;fill:#46a926;fill-opacity:1;fill-rule:nonzero;stroke:none;stroke-width:2;stroke-miterlimit:4;stroke-dasharray:none;stroke-opacity:1;marker:none;enable-background:accumulate" />
    </clipPath>
    <linearGradient
       inkscape:collect="always"
       xlink:href="#linearGradient4246"
       id="linearGradient920"
       gradientUnits="userSpaceOnUse"
       gradientTransform="matrix(0,-0.00953618,-0.00953591,0,5.1762705,4.4736435)"
       x1="459.03448"
       y1="419.23337"
       x2="35.310345"
       y2="207.36522" />
    <linearGradient
       inkscape:collect="always"
       id="linearGradient4246">
      <stop
         style="stop-color:#da1636;stop-opacity:1"
         offset="0"
         id="stop4248" />
      <stop
         style="stop-color:#f22c42;stop-opacity:1"
         offset="1"
         id="stop4250" />
    </linearGradient>
  </defs>
  <path
     style="color:#000000;display:inline;overflow:visible;visibility:visible;fill:url(#linearGradient920);fill-opacity:1;fill-rule:nonzero;stroke:none;stroke-width:0.26457033;marker:none;enable-background:accumulate"
     d="m 2.8849672,0.13228553 c 0.187972,0 0.3369145,0.004074 0.463514,0.0253194 0.1265996,0.021245 0.2372429,0.0627772 0.3193443,0.14468821 0.082102,0.0819083 0.1236232,0.1921045 0.1446883,0.31882839 0.02106,0.12672124 0.024684,0.27608441 0.023758,0.46454847 v 1.0308928 1.0314115 c 7.937e-4,0.188165 -0.00273,0.3374488 -0.023758,0.4640299 -0.02106,0.1267238 -0.062584,0.23692 -0.1446883,0.3188284 -0.082104,0.081911 -0.1927421,0.1234352 -0.3193443,0.1446882 -0.1266022,0.021245 -0.275542,0.025319 -0.463514,0.025319 H 1.3481841 c -0.1879719,0 -0.3366287,-0.00405 -0.46299804,-0.025319 C 0.75881934,4.0542493 0.64817339,4.0127832 0.56635767,3.9308326 0.48454988,3.8488819 0.44341449,3.7385402 0.42218801,3.6120042 0.40096947,3.4854708 0.39686863,3.3363192 0.39686863,3.1479743 V 2.1165628 1.0851514 c 0,-0.18834498 0.004101,-0.33749649 0.0253194,-0.46402989 C 0.44340655,0.49458547 0.48454724,0.38424377 0.56635767,0.30229312 0.64817339,0.22034246 0.75881934,0.17887107 0.88518606,0.15760491 1.0115554,0.13633345 1.1602122,0.13228553 1.3481841,0.13228553 Z"
     id="path918"
     inkscape:connector-curvature="0" />
  <path
     inkscape:connector-curvature="0"
     d="M 3.0296952,1.3266643 2.3924828,1.4370483 C 2.4016634,1.85399 1.9791949,2.1437606 1.5827892,1.3582593 L 0.83312391,1.4687359 C 0.94982588,1.8934824 1.3687386,1.9458065 1.6481513,2.1692387 1.5084423,2.378744 0.8738016,2.2525652 0.89078437,2.9064613 L 1.527994,2.7959794 c -0.00918,-0.416939 0.7261662,-0.768127 1.122474,0.017488 L 3.4001333,2.7029935 C 3.2832382,2.2771676 2.838051,2.2366883 2.5586488,2.011875 2.6970641,1.7074895 3.1549824,1.9812748 3.029592,1.3266828"
     style="color:#000000;display:inline;opacity:1;isolation:auto;mix-blend-mode:normal;solid-color:#000000;fill:#ffffff;stroke-width:0.09873104;color-rendering:auto;image-rendering:auto;shape-rendering:auto;enable-background:new"
     id="path19-3-6-7-5" />
  <path
     style="color:#000000;display:inline;overflow:visible;visibility:visible;opacity:0.07999998;fill:#ffffff;fill-opacity:1;fill-rule:nonzero;stroke:none;stroke-width:0.26457033;marker:none;enable-background:accumulate"
     d="M 2.1166947,0.26457068 V 3.968555 h 0.7683916 c 0.7428341,0 0.8190303,-0.076236 0.8190303,-0.8205807 V 2.1165628 1.0851514 c 0,-0.74434214 -0.076199,-0.82058072 -0.8190303,-0.82058072 z"
     id="path1009"
     inkscape:connector-curvature="0" />
  <path
     style="color:#000000;display:inline;overflow:visible;visibility:visible;opacity:0.07999998;fill:#ffffff;fill-opacity:1;fill-rule:nonzero;stroke:none;stroke-width:0.26457033;marker:none;enable-background:accumulate"
     d="M 0.52927284,2.1165628 V 3.1479743 C 0.52562184,3.8923085 0.60547174,3.968555 1.3483032,3.968555 h 1.5367831 c 0.7428341,0 0.8190303,-0.076236 0.8190303,-0.8205807 V 2.1165628 Z"
     id="path1016"
     inkscape:connector-curvature="0" />
  <path
     id="path1087"
     d="m 1.3483032,0.13228553 c -0.1879719,0 -0.3369145,0.004074 -0.463514,0.0253194 C 0.75818966,0.17884993 0.64754636,0.22038213 0.5654449,0.30229314 0.4833434,0.38420144 0.44182178,0.49439764 0.42075669,0.62112153 0.39969689,0.74784277 0.39607229,0.89720594 0.39699829,1.08567 v 1.0308928 1.0314115 c -7.9371e-4,0.188165 0.002725,0.3374488 0.0237584,0.4640299 0.0210598,0.1267238 0.0625841,0.23692 0.14468821,0.3188284 0.0821041,0.081911 0.19274212,0.1234352 0.3193443,0.1446882 0.1266022,0.021245 0.2755421,0.025319 0.463514,0.025319 h 1.5367831 c 0.1879719,0 0.3366287,-0.00405 0.4629981,-0.025319 C 3.4744511,4.0542493 3.585097,4.0127832 3.6669128,3.9308326 3.7487206,3.8488819 3.7898559,3.7385402 3.8110824,3.6120042 3.832301,3.4854708 3.8364018,3.3363192 3.8364018,3.1479743 V 2.1165628 1.0851514 c 0,-0.18834498 -0.0041,-0.33749649 -0.025319,-0.46402989 C 3.7898639,0.49458547 3.7487232,0.38424377 3.6669128,0.30229312 3.585097,0.22034246 3.4744511,0.17887107 3.3480844,0.15760491 3.221715,0.13633345 3.0730582,0.13228553 2.8850863,0.13228553 Z"
     style="color:#000000;display:inline;overflow:visible;visibility:visible;opacity:0.4;fill:none;fill-opacity:1;fill-rule:nonzero;stroke:#000000;stroke-width:0.26457033;stroke-opacity:1;marker:none;enable-background:accumulate"
     inkscape:connector-curvature="0" />
  <path
     transform="matrix(0.26457031,0,0,0.26457031,-84.662368,-62.438593)"
     style="color:#000000;display:inline;overflow:visible;visibility:visible;opacity:0.4;fill:none;fill-opacity:1;fill-rule:nonzero;stroke:url(#linearGradient993);stroke-width:2;stroke-miterlimit:4;stroke-dasharray:none;stroke-opacity:1;marker:none;enable-background:accumulate"
     d="m 325.09646,237 c -2.80769,0 -3.10979,0.28839 -3.09603,3.10176 V 244 v 3.89824 c -0.0138,2.81337 0.28834,3.10176 3.09603,3.10176 h 5.8075 C 333.71166,251 334,250.71165 334,247.89824 V 244 240.10176 C 334,237.28836 333.71165,237 330.90396,237 Z"
     id="path937"
     inkscape:connector-curvature="0"
     sodipodi:nodetypes="scccssscsss"
     clip-path="url(#clipPath983-3)" />
</svg>
